X:199
T:High Dad in The Morning
C:
N:Transcribed by Tristan Scroggins Based on Kenny Baker's version from "Portrait of a Bluegrass Fiddler"
R:bluegrass
L:1/8
Q:1/4=169
M:2/4
K:G
G,A, |: B,D EG | E2 EG | EG DC | B,C DE | E2 EG | EG DC | B,2 D2 | G,A, B,D | 
E2 EG | EG DC | B,C DG | AB2c | BA GA | BG AF |1 G2 G,A, :|2 G2 DG |: AB z2 | 
zG DG | AB z2 | zB AB | c2 (3BcB | A2 G2 | EF2E | FE [D2D2] | zD [D2^C2] | [D4C4] | 
zF DF | [A4A4] | z[AB] [A2A2] | [A4A4] | zd ^cd | e2 d2 | AB2B | A2 G2 |1 z2 DG :|2 z2 G,2 | 
|: zB, DG | EG DF | GA GE | DB, DG | A2 AB | AF DF | AB AF | (3E=FE DB, | G,B, DG | 
EG DF | GA GE | DB, G,2 | [g2e2] [g2^d2] | [f3d3]e | dB AF |1 G2 G,2 :|2 G4 | 


